X:1
T:Title
%%score ( 1 2 ) ( 3 4 )
L:1/8
Q:1/4=90
M:3/4
K:G
V:1 treble nm="Grand Piano, Soprano"
V:2 treble 
V:3 bass nm="Choir Pad, Just a Word for My Redeemer"
V:4 bass 
V:1
 [GB]>[Gc] [Gd]3 G | [GA]>[GB] D2 [DG]2 | [DG]>[^DG] [EG]3 [EG] | [DF]>[CE] [B,D]4 | %4
w: By~Henry~Stephen~Lowing * * *||||
 [DA]>[DB] [Dc]3 [DF] | [DG]>[DA] [DB]2 [Dd]2 | [Dd]>[DB] [DG]3 [DB] | [DB]>[CA] [B,G]4 | %8
w: ||||
[M:4/4] z2 B6 | z2 z/ E3/2- E3- E/ z/ | z2 c6 | z2 z/[K:bass] D3/2- D3- D/ z/ | z2 B6 | %13
w: |||||
 z2 z/ c3/2- c3- c/ z/ | z4 z .G z2 | z2 G6- | G2 z2 z4 |] %17
w: ||||
V:2
 x6 | x6 | x6 | x6 | x6 | x6 | x6 | x6 |[M:4/4] G>A z2 D>D D>[B,D] | [DG]>[DF] [DF]<C C>C C<C | %10
 A>B z2 F>F F>[FA] | [DF]>[CE] [CE]<[K:bass]B, B,>B, B,<B, | G>A z2 D>D D>[DG] | %13
 [DB]>[=Fd] [Ed]<E E>E E<E | [EG]>[^DA] [=DB]2- [DB]D/-[DB]/ [CA]2- | [CA][B,G] B,2 CC B,2- | %16
 B,4 z4 |] %17
V:3
 G,>[G,A,] [G,B,]3 [G,B,] | [G,C]>[G,D] [G,B,]2 [G,B,]2 | [B,,G,]>[B,,G,] [C,G,]3 [C,G,] | %3
 [C,G,]>[E,G,] G,4 | [D,F,]>[D,G,] [D,A,]3 [C,A,] | [B,,G,]>[D,F,] G,2 [G,B,]2 | %6
 [G,B,]>G, [B,,G,]3 [G,,G,] | [D,G,]>[D,F,] [G,,G,]4 |[M:4/4] z4 [G,,G,]>[G,,G,] [G,,G,]>[G,,G,] | %9
 [B,,G,]>[B,,G,] [C,G,]<[C,G,] [C,G,]<[C,G,] [C,C]<[C,C] | z4 [D,A,]>[D,A,] [D,A,]>[D,A,] | %11
 [D,A,]>[D,F,] [G,,G,]<[G,,G,] [G,,G,]<[G,,G,] [G,,D,]<[G,,D,] | z4 [G,,G,]>[G,,G,] G,>[G,B,] | %13
 G,>[B,,G,] [C,G,]<[C,G,] [C,G,]>[C,G,] [C,G,]<[C,G,] | z4 z .B, z2 | z8 | z8 |] %17
V:4
 x6 | x6 | x6 | x6 | x6 | x6 | x6 | x6 |[M:4/4] x8 | x8 | x8 | x8 | x8 | x8 | %14
 [C,G,]>[C,G,] [D,G,]2- [D,G,]D,/-[D,-G,]/ [D,F,]2- | %15
 [D,F,][G,,G,] [G,,D,]2 [G,,E,][G,,^D,] [G,,=D,]2- | [G,,D,]4 z4 |] %17

